vivaldi-source/chromium/ui/webui/resources/cr_components/chromeos/network/roaming_badge.svg

<svg width="8" height="8" viewBox="0 0 8 8" fill="none" xmlns="http://www.w3.org/2000/svg">
<path d="M1.95 7V7.05H2H3.13128H3.18128V7V4.79581H3.62462L5.16837 7.02844L5.18328 7.05H5.2095H6.50838H6.55838V7V6.93296V6.91717L6.54931 6.90425L4.95274 4.6281C5.31836 4.49012 5.62108 4.27747 5.8597 3.99004L5.85999 3.98968C6.11344 3.67864 6.23994 3.31259 6.23994 2.89385C6.23994 2.52279 6.15423 2.18991 5.98174 1.89661C5.80943 1.59801 5.568 1.36533 5.25845 1.19905C4.95376 1.03238 4.59609 0.95 4.18715 0.95H2H1.95V1V7ZM4.79409 2.33939L4.79409 2.3394L4.79462 2.34001C4.93237 2.49896 5.00028 2.67741 5.00028 2.87709C5.00028 3.10476 4.92408 3.28977 4.77253 3.4361C4.62117 3.58224 4.42477 3.6567 4.17877 3.6567H3.18128V2.09749H4.19553C4.46388 2.09749 4.66054 2.18016 4.79409 2.33939Z" fill="#202124"/>
</svg>

<svg width="8" height="8" viewBox="0 0 8 8" fill="none" xmlns="http://www.w3.org/2000/svg"><path d="M1.95 7v.05h1.231V4.796h.444l1.543 2.232.015.022h1.375v-.133l-.009-.013-1.596-2.276c.365-.138.668-.35.907-.638.253-.311.38-.677.38-1.096a1.93 1.93 0 0 0-.258-.997 1.802 1.802 0 0 0-.724-.698C4.954 1.032 4.596.95 4.188.95H1.95V7Zm2.844-4.66A.797.797 0 0 1 5 2.877a.742.742 0 0 1-.227.56.817.817 0 0 1-.594.22H3.18v-1.56h1.015c.268 0 .465.083.598.242Z" fill="#202124"/></svg>
